!!!COM: Potter, Robert Cyril GLadstone
!!!CDT: 1899-1981
!!!OTL: National Anthem, Guyana
!!!ENC: Davis, Matthew J.
!!Vocal Line Only
**kern
*clefG2
*k[b-e-]
*B-:
*M4/4
=1-
2b-
4a
8g
8f
=2
4b-
2b-
4b-
=3
4cc
2f
4f
=4
2.dd
4dd
=5
2g
4a
4b-
=6
4dd
4cc
4a
4f
=7
4b-
8cc
8b-
4a
4g
=8
2.f
8f
8g
=9
2a-
4b-
4f
=10
4a-
4g
8g
8g
4b-
=11
4.ee-
8dd
4cc
4b-
=12
2dd
4cc
4f
=13
2b-
4cc
4dd
=14
2ff
4ff
4ee-
=15
4dd
8cc
8dd
4.cc
8b-
=16
1b-
==|!
*-
